X: 5
T: Eddie Moloney's Favorite
R: reel
M: 4/4
L: 1/8
K: Edor
B2GB EBGB|BAFA DAFA|B2GB EFGA|(3Bcd ed Bded|
~B2BB dBGB|A2FA dAFA|BEED EFGA|Bded Bdef||
~g2gf gfed|ABBA Bdef|gbef fefd|BdAd BEEB|
~g2gf gfed|~B2AB GBAF|~E2EF GFGA|(3Bcded BdAd||


Tune 323	Setting 323

